小程序/search.svg

<svg width="15" height="15">
  <path fill="#000" fill-rule="evenodd" d="M14.6936637 13.7880859c.143881.143881.2158204.3098949.2158204.4980469 0 .188152-.0719394.354166-.2158204.4980469-.0774743.0774743-.1632482.1328123-.2573242.1660156-.094076.0332033-.174316.0498047-.2407226.0498047-.0664066 0-.1466467-.0166014-.2407227-.0498047-.094076-.0332033-.1798499-.0885413-.2573242-.1660156l-3.1875-3.1875c-.5312527.3873717-1.1123015.6972645-1.74316407.9296875-.63086253.232423-1.30045218.3486328-2.00878906.3486328-.83008228 0-1.61034791-.1577133-2.34082031-.4731445-.7304724-.3154313-1.36962617-.7443007-1.91748047-1.2866211s-.97949061-1.1787073-1.29492188-1.9091797C.88946295 8.47558229.73174968 7.68978285.73174968 6.84863281c0-.83008227.15771327-1.61034791.47314453-2.34082031.31543127-.7304724.74706758-1.36685927 1.29492188-1.90917969s1.18700807-.97118983 1.91748047-1.28662109C5.14776896.99658045 5.92803459.83886719 6.75811687.83886719c.83008228 0 1.61034791.15771326 2.34082033.47314453.7304724.31543126 1.3696261.74430067 1.9174805 1.28662109.5478543.54232042.9794906 1.17870729 1.2949218 1.90917969.3154313.7304724.4731446 1.51073804.4731446 2.34082031 0 .70833688-.1162098 1.38899413-.3486329 2.04199219-.232423.6529981-.5423157 1.2229793-.9296875 1.7099609l3.1875 3.1875zM2.15948406 6.84863281c0 .6419303.11897667 1.24234747.35693359 1.80126953.23795692.55892206.56445105 1.04589636.97949219 1.46093746.41504114.4150412.90201543.7443022 1.4609375.987793.55892206.2434908 1.15933924.3652344 1.80126953.3652344.64193029 0 1.23958057-.1189767 1.79296875-.3569336.55338818-.2379569 1.04036248-.567218 1.46093748-.987793.4316428-.4316428.7636707-.9241509.9960938-1.47753904.232423-.55338818.3486328-1.15103845.3486328-1.79296875 0-.63086253-.1189767-1.2257459-.3569336-1.78466797-.2379569-.55892206-.5644511-1.04866326-.9794922-1.46923828-.4150411-.42057502-.9020154-.74983605-1.4609375-.98779297C8.00046434 2.36897667 7.40004716 2.25 6.75811687 2.25c-.64193029 0-1.24234747.11897667-1.80126953.35693359-.55892207.23795692-1.04589636.56721795-1.4609375.98779297-.41504114.42057502-.74153527.91031622-.97949219 1.46923828-.23795692.55892207-.35693359 1.15380544-.35693359 1.78466797z"/>
</svg>

<?xml version="1.0" encoding="UTF-8"?>
<svg width="15px" height="15px" viewBox="0 0 15 15" version="1.1" xmlns="http://www.w3.org/2000/svg" xmlns:xlink="http://www.w3.org/1999/xlink">
    <!-- Generator: Sketch 50 (54983) - http://www.bohemiancoding.com/sketch -->
    <title>search</title>
    <desc>Created with Sketch.</desc>
    <defs></defs>
    <g id="Page-1" stroke="none" stroke-width="1" fill="none" fill-rule="evenodd">
        <g id="search" fill="#000000">
            <path d="M14.6936637,13.7880859 C14.8375447,13.9319669 14.9094841,14.0979808 14.9094841,14.2861328 C14.9094841,14.4742848 14.8375447,14.6402988 14.6936637,14.7841797 C14.6161894,14.861654 14.5304155,14.916992 14.4363395,14.9501953 C14.3422635,14.9833986 14.2620235,15 14.1956169,15 C14.1292103,15 14.0489702,14.9833986 13.9548942,14.9501953 C13.8608182,14.916992 13.7750443,14.861654 13.69757,14.7841797 L10.51007,11.5966797 C9.9788173,11.9840514 9.3977685,12.2939442 8.76690593,12.5263672 C8.1360434,12.7587902 7.46645375,12.875 6.75811687,12.875 C5.92803459,12.875 5.14776896,12.7172867 4.41729656,12.4018555 C3.68682416,12.0864242 3.04767039,11.6575548 2.49981609,11.1152344 C1.95196179,10.572914 1.52032548,9.9365271 1.20489421,9.2060547 C0.88946295,8.47558229 0.73174968,7.68978285 0.73174968,6.84863281 C0.73174968,6.01855054 0.88946295,5.2382849 1.20489421,4.5078125 C1.52032548,3.7773401 1.95196179,3.14095323 2.49981609,2.59863281 C3.04767039,2.05631239 3.68682416,1.62744298 4.41729656,1.31201172 C5.14776896,0.99658045 5.92803459,0.83886719 6.75811687,0.83886719 C7.58819915,0.83886719 8.36846478,0.99658045 9.0989372,1.31201172 C9.8294096,1.62744298 10.4685633,2.05631239 11.0164177,2.59863281 C11.564272,3.14095323 11.9959083,3.7773401 12.3113395,4.5078125 C12.6267708,5.2382849 12.7844841,6.01855054 12.7844841,6.84863281 C12.7844841,7.55696969 12.6682743,8.23762694 12.4358512,8.890625 C12.2034282,9.5436231 11.8935355,10.1136043 11.5061637,10.6005859 L14.6936637,13.7880859 Z M2.15948406,6.84863281 C2.15948406,7.49056311 2.27846073,8.09098028 2.51641765,8.64990234 C2.75437457,9.2088244 3.0808687,9.6957987 3.49590984,10.1108398 C3.91095098,10.525881 4.39792527,10.855142 4.95684734,11.0986328 C5.5157694,11.3421236 6.11618658,11.4638672 6.75811687,11.4638672 C7.40004716,11.4638672 7.99769744,11.3448905 8.55108562,11.1069336 C9.1044738,10.8689767 9.5914481,10.5397156 10.0120231,10.1191406 C10.4436659,9.6874978 10.7756938,9.1949897 11.0081169,8.64160156 C11.2405399,8.08821338 11.3567497,7.49056311 11.3567497,6.84863281 C11.3567497,6.21777028 11.237773,5.62288691 10.9998161,5.06396484 C10.7618592,4.50504278 10.435365,4.01530158 10.0203239,3.59472656 C9.6052828,3.17415154 9.1183085,2.84489051 8.5593864,2.60693359 C8.00046434,2.36897667 7.40004716,2.25 6.75811687,2.25 C6.11618658,2.25 5.5157694,2.36897667 4.95684734,2.60693359 C4.39792527,2.84489051 3.91095098,3.17415154 3.49590984,3.59472656 C3.0808687,4.01530158 2.75437457,4.50504278 2.51641765,5.06396484 C2.27846073,5.62288691 2.15948406,6.21777028 2.15948406,6.84863281 Z" id="Shape"></path>
        </g>
    </g>
</svg>
